X: 1071
M: 2/4
L: 1/16
K: F
|:\
f3ef3g | a3f c3A | c3eg3e | e6z2 |\
c2ba g4 | c2ag f4 | c2gf e2g2 | f4z2 :|
|: b2a2g2f2 | e2f2g4 | a2g2a2b2 | d'2c'2c'4 |\
b2a2g4 | a2g2f4 | g2f2e2g2 | f4z2 H:|
K: Bb
d4 d4 | d4 d4 \
|:\
f8 | (3e2d2e2 (3g2f2e2 | d4 d4 | d4 g2f2 |\
e6 c2 | d2g2 f2ed | c2f2 =e2ag | f4 z4 |
e2ed c4 | d2de f4 | g2e2 g4 | f2d2 f4 |\
e2ed c2e2 | d2de f4 | g2f2 c2d2 | B4 z2 :|
|: (3FFF |\

